src/symbols/av-symbol/1F4F4.svg

<?xml version="1.0" encoding="UTF-8"?>
<svg id="emoji" xmlns="http://www.w3.org/2000/svg" viewBox="0 0 72 72">
  <g id="grid">
    <path d="m68,4v64H4V4h64M72,0H0v72h72V0Z" fill="#b3b3b3"/>
    <path d="m12.923,10.9583h46.1539c1.0621,0,1.9231.861,1.9231,1.9231h0v46.1538c0,1.0621-.861,1.9231-1.9231,1.9231H12.9231c-1.0621,0-1.9231-.861-1.9231-1.9231h0V12.8813c0-1.062.861-1.923,1.923-1.923h0Z" fill="none" stroke="#00a5ff" stroke-miterlimit="10" stroke-width=".1"/>
    <rect x="16" y="4" width="40" height="64" rx="2.2537" ry="2.2537" fill="none" stroke="#00a5ff" stroke-miterlimit="10" stroke-width=".1"/>
    <rect x="4" y="16" width="64" height="40" rx="2.2537" ry="2.2537" fill="none" stroke="#00a5ff" stroke-miterlimit="10" stroke-width=".1"/>
    <circle cx="36" cy="36" r="29" fill="none" stroke="#00a5ff" stroke-miterlimit="10" stroke-width=".1"/>
  </g>
  <g id="color">
    <rect x="44.0696" y="25" width="3" height="26" fill="#9b9b9a"/>
    <path d="m47.1249,46.3066v12.8577c0,.4616-.3741.8357-.8357.8357h-27.5784c-.4616,0-.8357-.3741-.8357-.8357V12.3645c0-.4616.3741-.8357.8357-.8357h27.5784c.4616,0,.8357.3741.8357.8357v14.0542" fill="#9b9b9a"/>
    <rect x="41.23" y="25" width="3" height="26" fill="#d0cfce"/>
    <path d="m43.3642,46.3066v4.7258c0,.4459-.3614.8074-.8074.8074h-20.1137c-.4459,0-.8074-.3614-.8074-.8074V17.5473c0-.4459.3614-.8074.8074-.8074h20.1137c.4459,0,.8074.3614.8074.8074v8.8714" fill="#d0cfce"/>
  </g>
  <g id="line">
    <path d="m47.1249,46.3066v12.8577c0,.4616-.3741.8357-.8357.8357h-27.5784c-.4616,0-.8357-.3741-.8357-.8357V12.3645c0-.4616.3741-.8357.8357-.8357h27.5784c.4616,0,.8357.3741.8357.8357v14.0542" fill="none" stroke="#000" stroke-linecap="round" stroke-linejoin="round" stroke-width="2"/>
    <path d="m43.3642,46.3066v4.7258c0,.4459-.3614.8074-.8074.8074h-20.1137c-.4459,0-.8074-.3614-.8074-.8074V17.5473c0-.4459.3614-.8074.8074-.8074h20.1137c.4459,0,.8074.3614.8074.8074v8.8714" fill="none" stroke="#000" stroke-linecap="round" stroke-linejoin="round" stroke-width="2"/>
    <circle cx="32.5" cy="56.0183" r="1.6714"/>
    <polygon points="28.3214 14.2328 36.6786 14.2328 36.6786 14.2328 28.3214 14.2328" fill="none" stroke="#000" stroke-linecap="round" stroke-linejoin="round" stroke-width="2"/>
    <polyline points="43.8296 36.4699 40.8296 36.4699 40.8296 39.9699 40.8296 32.9699 44.8296 32.9699" fill="none" stroke="#000" stroke-linecap="round" stroke-linejoin="round" stroke-width="2"/>
    <polyline points="51.8296 36.4699 48.8296 36.4699 48.8296 39.9699 48.8296 32.9699 52.8296 32.9699" fill="none" stroke="#000" stroke-linecap="round" stroke-linejoin="round" stroke-width="2"/>
    <path d="m33.5,39.9699h0c-1.3807,0-2.5-1.1193-2.5-2.5v-2c0-1.3807,1.1193-2.5,2.5-2.5h0c1.3807,0,2.5,1.1193,2.5,2.5v2c0,1.3807-1.1193,2.5-2.5,2.5Z" fill="none" stroke="#000" stroke-linecap="round" stroke-linejoin="round" stroke-width="2"/>
  </g>
</svg>

<svg id="emoji" viewBox="0 0 72 72" xmlns="http://www.w3.org/2000/svg">
  <g id="grid">
    <path fill="#b3b3b3" d="M68,4V68H4V4H68m4-4H0V72H72V0Z"/>
    <path fill="none" stroke="#00a5ff" stroke-miterlimit="10" stroke-width="0.1" d="M12.923,10.9583H59.0769A1.9231,1.9231,0,0,1,61,12.8814V59.0352a1.9231,1.9231,0,0,1-1.9231,1.9231H12.9231A1.9231,1.9231,0,0,1,11,59.0352V12.8813A1.923,1.923,0,0,1,12.923,10.9583Z"/>
    <rect x="16" y="4" rx="2.2537" width="40" height="64" fill="none" stroke="#00a5ff" stroke-miterlimit="10" stroke-width="0.1"/>
    <rect x="16" y="4" rx="2.2537" width="40" height="64" transform="translate(72) rotate(90)" fill="none" stroke="#00a5ff" stroke-miterlimit="10" stroke-width="0.1"/>
    <circle cx="36" cy="36" r="29" fill="none" stroke="#00a5ff" stroke-miterlimit="10" stroke-width="0.1"/>
  </g>
  <g id="color">
    <rect x="45.0696" y="25" width="3" height="26" fill="#9b9b9a" stroke="none"/>
    <path fill="#9b9b9a" stroke="none" stroke-linecap="round" stroke-linejoin="round" stroke-miterlimit="10" stroke-width="2" d="M47.1249,46.3066v12.8577c0,0.4616-0.3741,0.8357-0.8357,0.8357H18.7108c-0.4616,0-0.8357-0.3741-0.8357-0.8357V12.3645 c0-0.4616,0.3741-0.8357,0.8357-0.8357h27.5784c0.4616,0,0.8357,0.3741,0.8357,0.8357v14.0542"/>
    <rect x="41.23" y="25" width="3" height="26" fill="#d0cfce" stroke="none"/>
    <path fill="#d0cfce" stroke="none" stroke-linecap="round" stroke-linejoin="round" stroke-miterlimit="10" stroke-width="2" d="M43.3642,46.3066v4.7258c0,0.4459-0.3614,0.8074-0.8074,0.8074H22.4431c-0.4459,0-0.8074-0.3614-0.8074-0.8074V17.5473 c0-0.4459,0.3614-0.8074,0.8074-0.8074h20.1137c0.4459,0,0.8074,0.3614,0.8074,0.8074v8.8714"/>
    <polygon fill="#FFFFFF" stroke="none" stroke-linecap="round" stroke-linejoin="round" stroke-miterlimit="10" stroke-width="2" points="28.3214,14.2328 36.6786,14.2328 36.6786,14.2328 28.3214,14.2328"/>
  </g>
  <g id="hair"/>
  <g id="skin"/>
  <g id="skin-shadow"/>
  <g id="line">
    <path fill="none" stroke="#000000" stroke-linecap="round" stroke-linejoin="round" stroke-miterlimit="10" stroke-width="2" d="M47.1249,46.3066v12.8577c0,0.4616-0.3741,0.8357-0.8357,0.8357H18.7108c-0.4616,0-0.8357-0.3741-0.8357-0.8357V12.3645 c0-0.4616,0.3741-0.8357,0.8357-0.8357h27.5784c0.4616,0,0.8357,0.3741,0.8357,0.8357v14.0542"/>
    <path fill="none" stroke="#000000" stroke-linecap="round" stroke-linejoin="round" stroke-miterlimit="10" stroke-width="2" d="M43.3642,46.3066v4.7258c0,0.4459-0.3614,0.8074-0.8074,0.8074H22.4431c-0.4459,0-0.8074-0.3614-0.8074-0.8074V17.5473 c0-0.4459,0.3614-0.8074,0.8074-0.8074h20.1137c0.4459,0,0.8074,0.3614,0.8074,0.8074v8.8714"/>
    <circle cx="32.5" cy="56.0183" r="1.6714" fill="#000000" stroke="none"/>
    <polygon fill="none" stroke="#000000" stroke-linecap="round" stroke-linejoin="round" stroke-miterlimit="10" stroke-width="2" points="28.3214,14.2328 36.6786,14.2328 36.6786,14.2328 28.3214,14.2328"/>
    <polyline fill="none" stroke="#000000" stroke-linecap="round" stroke-linejoin="round" stroke-miterlimit="10" stroke-width="2" points="45.8296,36.4699 42.8296,36.4699 42.8296,39.9699 42.8296,32.9699 46.8296,32.9699"/>
    <polyline fill="none" stroke="#000000" stroke-linecap="round" stroke-linejoin="round" stroke-miterlimit="10" stroke-width="2" points="53.8296,36.4699 50.8296,36.4699 50.8296,39.9699 50.8296,32.9699 54.8296,32.9699"/>
    <path fill="none" stroke="#000000" stroke-linecap="round" stroke-linejoin="round" stroke-miterlimit="10" stroke-width="2" d="M35.5,39.9699L35.5,39.9699c-1.3807,0-2.5-1.1193-2.5-2.5v-2c0-1.3807,1.1193-2.5,2.5-2.5l0,0c1.3807,0,2.5,1.1193,2.5,2.5v2 C38,38.8506,36.8807,39.9699,35.5,39.9699z"/>
  </g>
</svg>
